svg/furkot/nps/climbing.svg

<svg viewBox="0 0 512 512" xmlns="http://www.w3.org/2000/svg"><path d="m58.29 221.401c-2.332 4.794-4.018 10.111-4.923 15.815-.388 2.855-.652 5.705-.652 8.554l2.074 130.633-45.113 97.218c-1.556 2.854-2.72 6.221-3.237 9.723-2.467 16.068 8.554 30.978 24.628 33.445 12.443 1.945 24.369-4.411 30.073-14.91l49.649-106.294c1.034-2.467 1.944-5.058 2.332-7.908.124-1.293.259-2.715.259-4.013l-.388-80.72 76.22 33.28 12.314 78.946c2.467 11.533 11.926 20.739 24.245 22.683 16.069 2.333 30.979-8.683 33.441-24.633.388-2.715.388-5.446.129-8.031l-15.039-95.248c-1.821-9.206-7.908-17.113-16.467-21.132l-68.184-30.332 43.422-75.574 21.519 27.353c2.203 2.467 5.053 4.536 8.296 5.834l82.054 23.981c10.887 2.333 22.037-3.372 26.314-13.87 4.799-11.926-.91-25.409-12.702-30.203-.388-.13-.776-.259-1.169-.388l-71.297-21.002-53.651-64.425c-8.042-8.554-18.8-14.646-31.243-16.59-21.778-3.243-42.387 7.126-53.279 24.757z"/><path d="m293.686 408.674-5.182 39.15-141.162 34.351 1.293 24.24h344.287c12.184 0 22.036-9.847 22.036-22.032l-.388-464.032-47.181-11.016-27.09 121.975-45.242 19.058-40.184 112.516 38.11 86.036-10.762 33.058zm-95.92-320.786c24.24 0 43.939-19.704 43.939-43.944s-19.699-43.944-43.939-43.944c-24.245 0-43.944 19.704-43.944 43.944s19.705 43.944 43.944 43.944zm-87.365 6.868c3.366-5.963 1.422-13.741-4.665-17.113l-21.256-12.443c-6.097-3.372-13.741-1.428-17.243 4.665l-65.598 113.167c-3.366 5.963-1.422 13.612 4.665 17.113l21.391 12.314c5.963 3.502 13.612 1.428 17.113-4.535z"/></svg>

<svg xmlns="http://www.w3.org/2000/svg" viewBox="0 0 512 512"><path d="M58.29 221.401C55.958 226.195 54.272 231.512 53.367 237.216 52.979 240.071 52.715 242.921 52.715 245.77L54.789 376.403 9.676 473.621C8.12 476.475 6.956 479.842 6.439 483.344 3.972 499.412 14.993 514.322 31.067 516.789 43.51 518.734 55.436 512.378 61.14 501.879L110.789 395.585C111.823 393.118 112.733 390.527 113.121 387.677 113.245 386.384 113.38 384.962 113.38 383.664L112.992 302.944 189.212 336.224 201.526 415.17C203.993 426.703 213.452 435.909 225.771 437.853 241.84 440.186 256.75 429.17 259.212 413.22 259.6 410.505 259.6 407.774 259.341 405.189L244.302 309.941C242.481 300.735 236.394 292.828 227.835 288.809L159.651 258.477 203.073 182.903 224.592 210.256C226.795 212.723 229.645 214.792 232.888 216.09L314.942 240.071C325.829 242.404 336.979 236.699 341.256 226.201 346.055 214.275 340.346 200.792 328.554 195.998 328.166 195.868 327.778 195.739 327.385 195.61L256.088 174.608 202.437 110.183C194.395 101.629 183.637 95.537 171.194 93.593 149.416 90.35 128.807 100.719 117.915 118.35L58.29 221.401Z"/><path d="M293.686 408.674L288.504 447.824 147.342 482.175 148.635 506.415H492.922C505.106 506.415 514.958 496.568 514.958 484.383L514.57 20.351 467.389 9.335 440.299 131.31 395.057 150.368 354.873 262.884 392.983 348.92 382.221 381.978 293.686 408.674ZM197.766 87.888C222.006 87.888 241.705 68.184 241.705 43.944 241.705 19.704 222.006 0 197.766 0 173.521 0 153.822 19.704 153.822 43.944 153.822 68.184 173.527 87.888 197.766 87.888ZM110.401 94.756C113.767 88.793 111.823 81.015 105.736 77.643L84.48 65.2C78.383 61.828 70.739 63.772 67.237 69.865L1.639 183.032C-1.727 188.995 0.217 196.644 6.304 200.145L27.695 212.459C33.658 215.961 41.307 213.887 44.808 207.924L110.401 94.756Z"/></svg>
